X: 0
T: See, The Morning Fair And Bright
Z: Arthur H. Brown
Z: Copyright © 2004 Douglas D. Anderson
Z: Released To The Public Domain
L: 1/4
M: 6/8
Q: 1/4=105
V: P1 name="Staff"
%%MIDI program 1 19
K: D
[V: P1]  A d/ F G/ | (A/ B/) A/ (D3/ F/) | G F/ (E/ F/) D/ | C E/ A3/ | A d/ F G/ | (A/ B/) A/ D3/ | E B/ (B/ A/) G/ | F E/ Dz/ | d B/ ^A F/ | B c/ d3/ | e d/ (c/ d/) B/ | c B/ Az/ |"^Chorus" A d/ F G/ | (A/ B/) A/ (D3/ F/) | G F/ (E/ F/) D/ | C E/ A3/ | d B/ (A/ G/) F/ | G B/ ez/ | (A/ B/) c/ (d e/) | f d/ Bz/ | (c/ B/) A/ d B/ | (A3/ B) c/ | (d3/ d)z/|]
w: See, the morn- ing fair_ and bright_ Hail the Sa-_ viour come to save All man- kind from end-_ less night! On this day_ Him- self He gave; Left His Fa- ther's throne a- bove, Crown'd with mer-_ cy, peace, and love. Hark! The her- ald an-_ gels sing;_ Make the heav'n-_ ly man- sions ring; All the hosts_ of heav'n pro- claim Christ_ is born,_ Christ is born, Christ_ is born in Beth-_ le hem._

